svgs/light/play-pause.svg

<svg xmlns="http://www.w3.org/2000/svg" viewBox="0 0 512 512"><!--! Font Awesome Pro 6.3.0 by @fontawesome - https://fontawesome.com License - https://fontawesome.com/license (Commercial License) Copyright 2023 Fonticons, Inc. --><path d="M52.51 71.41C46.36 66.31 39.22 64 32.22 64C15.71 64 0 76.81 0 96.03v319.9C0 435.2 15.71 448 32.22 448c7.002 0 14.15-2.305 20.29-7.406l192-159.1c15.25-12.87 15.25-36.37 0-49.24L52.51 71.41zM32 415.1L31.78 96.18c.0586-.0527 .1816-.1113 .291-.1465l191.1 160L32 415.1zM368 64C359.2 64 352 71.16 352 80v352c0 8.836 7.164 16 16 16s16-7.164 16-16v-352C384 71.16 376.8 64 368 64zM496 64C487.2 64 480 71.16 480 80v352c0 8.836 7.164 16 16 16s16-7.164 16-16v-352C512 71.16 504.8 64 496 64z"/></svg>

<svg xmlns="http://www.w3.org/2000/svg" viewBox="0 0 512 512"><!-- Font Awesome Pro 6.0.0-alpha2 by @fontawesome - https://fontawesome.com License - https://fontawesome.com/license (Commercial License) --><path d="M52.506 71.406C46.361 66.307 39.217 64 32.217 64C15.713 64 0 76.809 0 96.027V415.973C0 435.189 15.715 448 32.217 448C39.219 448 46.361 445.695 52.506 440.594L244.529 280.621C259.781 267.748 259.781 244.252 244.529 231.379L52.506 71.406ZM32 415.973L31.779 96.176C31.838 96.123 31.961 96.064 32.07 96.029L224.047 256.035L32 415.973ZM368 64C359.164 64 352 71.164 352 80V432C352 440.836 359.164 448 368 448S384 440.836 384 432V80C384 71.164 376.836 64 368 64ZM496 64C487.164 64 480 71.164 480 80V432C480 440.836 487.164 448 496 448S512 440.836 512 432V80C512 71.164 504.836 64 496 64Z"/></svg>
